X: 15142
T: Gigue à Méo
R: jig
M: 6/8
K: Dminor
"Dm"afe d2d|afe "Bb/D"B3|afe dcd|BAc AFA|
"Dm (b9)"afe dcd|efg "Bb/D"B2z|def gab|1 afe d3:|2 afe def||
"F"fcA FAc|efe "Gm"gcg|gab agf|"C7sus4"efe dcd|
"F"fcA FAc|1 BAG "Gm"Dfg|"F/A"aca gBg|"Bb"fAf ecG:|2
BAG "Gm"~D3|DEF "F/A"GAB|AFE "Bb"D3||

